X:41
T:41 The Tartar
C:Welch MS
I:abc2nwc
M:2/4
L:1/16
K:D
F2A2 d4|B2d2 g4|f2a2 gfed|c2e2 c2A2|F2A2 d4|B2d2 g4|fafd egec|d4d4:|
a2f2 f4|BAGF E4|g2e2 e4|AGFE D4|F2A2 d4|B2d2 g4|gfed fedc|d4d4:|


